X: 171
%
U:~=!turn!
T: Fair Fa' the Minstrel
C:
O:Scotland
B:Keith Norman MacDonald : "The Skye collection of the best reels & strathspeys extant" : 1887
Z:Ralph Palmer
R:Reel
M:C|
L:1/8
K:Bb
e !segno!| dB B/B/B FBDe | dB B/B/B (dB)(fe) | dB B/B/B (FB)(DB) | {/F}GEFD CDE :|
G | (DB,)FB, GB,FB, | (DB,)FB, (DE)FB | (DB,)FB, (GB,)FD | GEFD {/B,}CDEG |
(DB,)(FB,) GB,FB, | (DB,)FB, DEFe | dBcA ~BGFD | GEFD CDE ||
|: e | dB B/B/B FBDe | dB B/B/B (dB)fe | dB B/B/B (FB)(DB) | GEFD CDE :|
e | TdBfB gBfe | dBfB (de)(fb) | dBfB gBfd | gefd (cd)(eg) |
dBfB gBfe | dBfB (de)(fb) | dbfd bdfb | gefd (cd)(eg) !segno! |]


